src/components/Header/logo.svg

<svg width="82" height="89" viewBox="0 0 82 89" fill="none" xmlns="http://www.w3.org/2000/svg">
    <g filter="url(#filter0_d)">
        <path fill-rule="evenodd" clip-rule="evenodd" d="M41 70C53.1503 70 63 60.1503 63 48C63 35.8497 53.1503 26 41 26C28.8497 26 19 35.8497 19 48C19 60.1503 28.8497 70 41 70Z"
              fill="black" fill-opacity="0.01"/>
    </g>
    <g filter="url(#filter1_d)">
        <path fill-rule="evenodd" clip-rule="evenodd" d="M41 70C57.5685 70 71 56.5685 71 40C71 23.4315 57.5685 10 41 10C24.4315 10 11 23.4315 11 40C11 56.5685 24.4315 70 41 70Z"
              fill="#2196F3"/>
        <path d="M69 40C69 55.464 56.464 68 41 68C25.536 68 13 55.464 13 40C13 24.536 25.536 12 41 12C56.464 12 69 24.536 69 40Z" stroke="#42A5F5" stroke-width="4"/>
    </g>
    <mask id="mask0" style="mask-type:alpha" maskUnits="userSpaceOnUse" x="11" y="10" width="60" height="60">
        <path fill-rule="evenodd" clip-rule="evenodd" d="M41 70C57.5685 70 71 56.5685 71 40C71 23.4315 57.5685 10 41 10C24.4315 10 11 23.4315 11 40C11 56.5685 24.4315 70 41 70Z"
              fill="white"/>
    </mask>
    <g mask="url(#mask0)">
        <path d="M13.714 32.875H67.536" stroke="#42A5F5" stroke-width="4" stroke-linecap="square"/>
        <path d="M13.714 48.625H67.536" stroke="#42A5F5" stroke-width="4" stroke-linecap="square"/>
        <path d="M40.25 14.5C40.25 14.5 30.2878 26.0775 30.5035 40.75C30.7191 55.4225 40.25 65.5 40.25 65.5" stroke="#42A5F5" stroke-width="4" stroke-linecap="round"
              stroke-linejoin="round"/>
        <path d="M41 14.5C41 14.5 50.9622 26.0775 50.7465 40.75C50.5309 55.4225 41 65.5 41 65.5" stroke="#42A5F5" stroke-width="4" stroke-linecap="round" stroke-linejoin="round"/>
    </g>
    <path fill-rule="evenodd" clip-rule="evenodd"
          d="M51.1946 29.0278C51.3946 28.9123 51.6151 28.8406 51.8456 28.8261C52.8621 28.7621 55.798 28.678 56.4347 29.7809C57.0715 30.8838 55.5298 33.3837 54.966 34.2314C54.8383 34.4235 54.666 34.5784 54.4662 34.6938L48.3904 38.2016L49.2343 55.302C49.2461 55.5414 49.125 55.7679 48.9193 55.8911L47.67 56.6393C47.5055 56.7379 47.3057 56.7586 47.1244 56.696L46.1776 56.369C46.019 56.3143 45.8877 56.2002 45.8114 56.0508L39.3534 43.4192L32.9843 47.0964L32.2974 51.7678C32.2498 52.0912 31.9693 52.3288 31.6426 52.3226L31.1446 52.3132C30.8927 52.3084 30.6663 52.1583 30.5638 51.9282L28.7741 47.9122C27.5439 47.9515 26.3891 47.8306 26.0792 47.294C25.7697 46.7579 26.2429 45.7021 26.893 44.6611L24.3295 41.1301C24.1815 40.9263 24.1648 40.6552 24.2866 40.4347L24.5274 39.9987C24.6854 39.7126 25.0314 39.5886 25.3352 39.709L29.6974 41.4392L36.0779 37.7555L28.4192 25.9267C28.328 25.7858 28.2948 25.6152 28.3267 25.4504L28.517 24.4669C28.5534 24.2786 28.6712 24.116 28.8389 24.0228L30.1115 23.315C30.321 23.1984 30.5777 23.2068 30.7791 23.3368L45.0768 32.5599L51.1946 29.0278Z"
          fill="white"/>
    <mask id="mask1" style="mask-type:alpha" maskUnits="userSpaceOnUse" x="16" y="13" width="50" height="51">
        <path fill-rule="evenodd" clip-rule="evenodd"
              d="M51.1946 29.0278C51.3946 28.9123 51.6151 28.8406 51.8456 28.8261C52.8621 28.7621 55.798 28.678 56.4347 29.7809C57.0715 30.8838 55.5298 33.3837 54.966 34.2314C54.8383 34.4235 54.666 34.5784 54.4662 34.6938L48.3904 38.2016L49.2343 55.302C49.2461 55.5414 49.125 55.7679 48.9193 55.8911L47.67 56.6393C47.5055 56.7379 47.3057 56.7586 47.1244 56.696L46.1776 56.369C46.019 56.3143 45.8877 56.2002 45.8114 56.0508L39.3534 43.4192L32.9843 47.0964L32.2974 51.7678C32.2498 52.0912 31.9693 52.3288 31.6426 52.3226L31.1446 52.3132C30.8927 52.3084 30.6663 52.1583 30.5638 51.9282L28.7741 47.9122C27.5439 47.9515 26.3891 47.8306 26.0792 47.294C25.7697 46.7579 26.2429 45.7021 26.893 44.6611L24.3295 41.1301C24.1815 40.9263 24.1648 40.6552 24.2866 40.4347L24.5274 39.9987C24.6854 39.7126 25.0314 39.5886 25.3352 39.709L29.6974 41.4392L36.0779 37.7555L28.4192 25.9267C28.328 25.7858 28.2948 25.6152 28.3267 25.4504L28.517 24.4669C28.5534 24.2786 28.6712 24.116 28.8389 24.0228L30.1115 23.315C30.321 23.1984 30.5777 23.2068 30.7791 23.3368L45.0768 32.5599L51.1946 29.0278Z"
              fill="white"/>
    </mask>
    <g mask="url(#mask1)">
        <rect x="45.536" y="30.7839" width="1.30853" height="12.4084" transform="rotate(60 45.536 30.7839)" fill="#EBECF2"/>
        <path fill-rule="evenodd" clip-rule="evenodd"
              d="M48.9193 55.8911C49.125 55.7679 49.246 55.5415 49.2342 55.302L48.3628 37.6426L39.1264 42.9752L45.8113 56.0508C45.8877 56.2002 46.0189 56.3143 46.1775 56.369L47.1244 56.696C47.3057 56.7587 47.5054 56.7379 47.67 56.6393L48.9193 55.8911Z"
              fill="#DEE1E3"/>
        <path opacity="0.4" fill-rule="evenodd" clip-rule="evenodd"
              d="M28.8366 47.8013L28.7476 47.8527L30.5638 51.9282C30.6664 52.1584 30.8928 52.3084 31.1447 52.3132L31.6426 52.3226C31.9694 52.3288 32.2498 52.0912 32.2974 51.7678L33.023 46.8334L32.56 47.1007C32.4167 47.1834 32.2626 47.2452 32.1011 47.2813C31.551 47.4041 30.1548 47.6951 28.8366 47.8013Z"
              fill="#DEE1E3"/>
        <path fill-rule="evenodd" clip-rule="evenodd" d="M39.2482 43.2134L48.3776 37.9426L48.4768 39.9539L40.9559 46.5538L39.2482 43.2134Z" fill="#C5C6CC"/>
        <path fill-rule="evenodd" clip-rule="evenodd"
              d="M57.4823 32.9524L27.6913 50.1523C27.6913 50.1523 26.8123 48.5636 26.0793 47.2939C26.0704 47.2786 26.062 47.263 26.0541 47.2473C27.4056 47.345 30.1269 47.2351 32.7661 45.7114L53.3906 33.8038C55.6822 32.4807 56.2435 30.7674 56.5526 30.0309C57.0312 31.316 57.4823 32.9524 57.4823 32.9524Z"
              fill="#DEE1E3"/>
    </g>
    <defs>
        <filter id="filter0_d" x="8" y="23" width="66" height="66" filterUnits="userSpaceOnUse" color-interpolation-filters="sRGB">
            <feFlood flood-opacity="0" result="BackgroundImageFix"/>
            <feColorMatrix in="SourceAlpha" type="matrix" values="0 0 0 0 0 0 0 0 0 0 0 0 0 0 0 0 0 0 127 0" result="hardAlpha"/>
            <feOffset dy="8"/>
            <feGaussianBlur stdDeviation="5.5"/>
            <feColorMatrix type="matrix" values="0 0 0 0 0.215686 0 0 0 0 0.407843 0 0 0 0 0.556863 0 0 0 0.25 0"/>
            <feBlend mode="normal" in2="BackgroundImageFix" result="effect1_dropShadow"/>
            <feBlend mode="normal" in="SourceGraphic" in2="effect1_dropShadow" result="shape"/>
        </filter>
        <filter id="filter1_d" x="0" y="0" width="82" height="82" filterUnits="userSpaceOnUse" color-interpolation-filters="sRGB">
            <feFlood flood-opacity="0" result="BackgroundImageFix"/>
            <feColorMatrix in="SourceAlpha" type="matrix" values="0 0 0 0 0 0 0 0 0 0 0 0 0 0 0 0 0 0 127 0" result="hardAlpha"/>
            <feOffset dy="1"/>
            <feGaussianBlur stdDeviation="5.5"/>
            <feColorMatrix type="matrix" values="0 0 0 0 0.215686 0 0 0 0 0.407843 0 0 0 0 0.556863 0 0 0 0.3 0"/>
            <feBlend mode="normal" in2="BackgroundImageFix" result="effect1_dropShadow"/>
            <feBlend mode="normal" in="SourceGraphic" in2="effect1_dropShadow" result="shape"/>
        </filter>
    </defs>
</svg>

<svg width="82" height="89" fill="none" xmlns="http://www.w3.org/2000/svg">
    <g filter="url(#a)">
        <path fill-rule="evenodd" clip-rule="evenodd" d="M41 70c12.15 0 22-9.85 22-22s-9.85-22-22-22-22 9.85-22 22 9.85 22 22 22Z" fill="#000" fill-opacity=".01"/>
    </g>
    <g filter="url(#b)">
        <path fill-rule="evenodd" clip-rule="evenodd" d="M41 70c16.569 0 30-13.431 30-30 0-16.569-13.431-30-30-30-16.569 0-30 13.431-30 30 0 16.569 13.431 30 30 30Z"
              fill="#2196F3"/>
        <path d="M69 40c0 15.464-12.536 28-28 28S13 55.464 13 40s12.536-28 28-28 28 12.536 28 28Z" stroke="#42A5F5" stroke-width="4"/>
    </g>
    <mask id="c" style="mask-type:alpha" x="11" y="10" width="60" height="60">
        <path fill-rule="evenodd" clip-rule="evenodd" d="M41 70c16.569 0 30-13.431 30-30 0-16.569-13.431-30-30-30-16.569 0-30 13.431-30 30 0 16.569 13.431 30 30 30Z" fill="#fff"/>
    </mask>
    <g mask="url(#c)" stroke="#42A5F5" stroke-width="4">
        <path d="M13.714 32.875h53.822M13.714 48.625h53.822" stroke-linecap="square"/>
        <path d="M40.25 14.5s-9.962 11.578-9.747 26.25C30.72 55.422 40.25 65.5 40.25 65.5M41 14.5s9.962 11.578 9.746 26.25C50.531 55.422 41 65.5 41 65.5" stroke-linecap="round"
              stroke-linejoin="round"/>
    </g>
    <path fill-rule="evenodd" clip-rule="evenodd"
          d="M51.195 29.028c.2-.116.42-.187.65-.202 1.017-.064 3.953-.148 4.59.955.636 1.103-.905 3.603-1.469 4.45-.128.192-.3.347-.5.463l-6.076 3.508.844 17.1a.65.65 0 0 1-.315.59l-1.249.747a.65.65 0 0 1-.546.057l-.946-.327a.649.649 0 0 1-.367-.318l-6.458-12.632-6.369 3.677-.687 4.672a.65.65 0 0 1-.654.555l-.498-.01a.65.65 0 0 1-.581-.385l-1.79-4.016c-1.23.04-2.385-.081-2.695-.618-.31-.536.164-1.592.814-2.633l-2.564-3.53a.65.65 0 0 1-.042-.696l.24-.436a.65.65 0 0 1 .808-.29l4.362 1.73 6.38-3.684-7.658-11.828a.65.65 0 0 1-.092-.477l.19-.983a.649.649 0 0 1 .322-.444l1.273-.708a.649.649 0 0 1 .667.022l14.298 9.223 6.118-3.532Z"
          fill="#fff"/>
    <mask id="d" style="mask-type:alpha" x="16" y="13" width="50" height="51">
        <path fill-rule="evenodd" clip-rule="evenodd"
              d="M51.195 29.028c.2-.116.42-.187.65-.202 1.017-.064 3.953-.148 4.59.955.636 1.103-.905 3.603-1.469 4.45-.128.192-.3.347-.5.463l-6.076 3.508.844 17.1a.65.65 0 0 1-.315.59l-1.249.747a.65.65 0 0 1-.546.057l-.946-.327a.649.649 0 0 1-.367-.318l-6.458-12.632-6.369 3.677-.687 4.672a.65.65 0 0 1-.654.555l-.498-.01a.65.65 0 0 1-.581-.385l-1.79-4.016c-1.23.04-2.385-.081-2.695-.618-.31-.536.164-1.592.814-2.633l-2.564-3.53a.65.65 0 0 1-.042-.696l.24-.436a.65.65 0 0 1 .808-.29l4.362 1.73 6.38-3.684-7.658-11.828a.65.65 0 0 1-.092-.477l.19-.983a.649.649 0 0 1 .322-.444l1.273-.708a.649.649 0 0 1 .667.022l14.298 9.223 6.118-3.532Z"
              fill="#fff"/>
    </mask>
    <g mask="url(#d)">
        <path fill="#EBECF2" d="m45.536 30.784.654 1.134-10.745 6.204-.655-1.134z"/>
        <path fill-rule="evenodd" clip-rule="evenodd"
              d="M48.92 55.891a.65.65 0 0 0 .314-.589l-.871-17.66-9.237 5.333 6.685 13.076a.65.65 0 0 0 .367.318l.946.327a.649.649 0 0 0 .546-.057l1.25-.748Z" fill="#DEE1E3"/>
        <path opacity=".4" fill-rule="evenodd" clip-rule="evenodd"
              d="m28.837 47.801-.09.052 1.817 4.075a.65.65 0 0 0 .58.385l.499.01a.65.65 0 0 0 .654-.555l.726-4.935-.463.268a1.63 1.63 0 0 1-.459.18c-.55.123-1.946.414-3.264.52Z"
              fill="#DEE1E3"/>
        <path fill-rule="evenodd" clip-rule="evenodd" d="m39.248 43.213 9.13-5.27.099 2.01-7.521 6.6-1.708-3.34Z" fill="#C5C6CC"/>
        <path fill-rule="evenodd" clip-rule="evenodd"
              d="m57.482 32.952-29.79 17.2s-.88-1.588-1.613-2.858a.875.875 0 0 1-.025-.047c1.352.098 4.073-.012 6.712-1.536l20.625-11.907c2.291-1.323 2.852-3.037 3.162-3.773.478 1.285.93 2.921.93 2.921Z"
              fill="#DEE1E3"/>
    </g>
    <defs>
        <filter id="a" x="8" y="23" width="66" height="66" color-interpolation-filters="sRGB">
            <feFlood flood-opacity="0" result="BackgroundImageFix"/>
            <feColorMatrix in="SourceAlpha" values="0 0 0 0 0 0 0 0 0 0 0 0 0 0 0 0 0 0 127 0" result="hardAlpha"/>
            <feOffset dy="8"/>
            <feGaussianBlur stdDeviation="5.5"/>
            <feColorMatrix values="0 0 0 0 0.215686 0 0 0 0 0.407843 0 0 0 0 0.556863 0 0 0 0.25 0"/>
            <feBlend in2="BackgroundImageFix" result="effect1_dropShadow"/>
            <feBlend in="SourceGraphic" in2="effect1_dropShadow" result="shape"/>
        </filter>
        <filter id="b" x="0" y="0" width="82" height="82" color-interpolation-filters="sRGB">
            <feFlood flood-opacity="0" result="BackgroundImageFix"/>
            <feColorMatrix in="SourceAlpha" values="0 0 0 0 0 0 0 0 0 0 0 0 0 0 0 0 0 0 127 0" result="hardAlpha"/>
            <feOffset dy="1"/>
            <feGaussianBlur stdDeviation="5.5"/>
            <feColorMatrix values="0 0 0 0 0.215686 0 0 0 0 0.407843 0 0 0 0 0.556863 0 0 0 0.3 0"/>
            <feBlend in2="BackgroundImageFix" result="effect1_dropShadow"/>
            <feBlend in="SourceGraphic" in2="effect1_dropShadow" result="shape"/>
        </filter>
    </defs>
</svg>
